!!!OTL: Latour d' Auvergne (135), S. 805f
!!!id: T0304
**kern
*clefG2
*k[f#c#g#]
*A:
{8e
8f#
8g#
=1
4.a
8a
8.b
16a
8g#
8f#
=2
8f#
8e
4e}
8r
=3
{8cc#
8cc#
8cc#
=4
4.cc#
8b
8a
8g#
8f#
8e
=5
2a}
8r
=6
{8e
8f#
8g#
=7
4.a
8a
8.b
16a
8g#
8f#
=8
8f#
8e
4e}
8r
=9
{8e
8g#
8a
=10
8b
4ee
8g#
8b
8b
16a
16g#
8f#
=11
2e}
8r
=12
{8e
8f#
8e
=13
4.b
8b
8b
8dd
8cc#
8b
=14
2a}
8r
=15
{8cc#
8cc#
8cc#
=16
4.b
8b
8a
8g#
8f#
8g#
=17
2a}
8r
=18
{8e
8f#
8e
=19
4.b
8b
8b
8dd
8cc#
8b
=20
2ee}
=21
{2dd
=22
2f#
2b
=23
2a
8r
8e
8d#
8e
=24
2cc#
2b
=25
2a}
8r
==
*-
!!!minrhy: 16
!!!meters: 4/4 ]  ZZ[8
!!!cut: Latour d' Auvergne (135), S. 805f
!!!reg: Luxemburg
!!!trd: Singendes Volk, Esch-Alzette 1937, posth.
!!!rhy1: X_X_X_  X__.X_X_.XX_X_  X_X_X__0_
!!!rhy2: X_X_X_  X__.X_X_X_X_X_  X___0_
!!!key: T0304  16  A 4/4 ]  ZZ[8
!!!mod: ACHTTONSKALA DUR ?]  AMBITUS[9b
!!!kad: -51-5-51151
!!!akz: 12-6_311_12-6_22-5_221_211_225_4-621321_
!!!fot: 'a__b__a__c__cw_d__cw_e__
!!!for: 'a__b__a__c__b__b__bv_d__
!!!fok: '^__Vd_^__^__^a_Vd_~a_$d_
!! PHRAS[AUFTAKTIG]
!!!fkt: historische, Kriegs- und Soldatenlieder
!!!bem: Junglinster, hhh Vater des Autors vor 1900
!! THILL, Mathias:
!! PR[30] 2K[5] 2G[10] 3K[3] 3G[1] 4A[7] 4Ü[0] 5A[3] 6K[0] 6G[0]
!! 7K[0] 7G[0] 8A[0] MEHR[0] SI[29] ABS[107] SR[15] SP[14]
!! ST[20] 2k[9] 2g[24] 3k[4] 3g[0] 4d[2] 4ü[0] 5d[0] 6k[1] 6g[1]
!! 7k[0] 7g[0] 8d[0] mehr[0] si[41] dm[-12] sr[34] sp[7]
!! 1F[81] 2F[6] 3F[4] 4F[0] LF[0] 2P[8] 3P[0] 4P[0] TRI[0] DF[4] AB[118]
!! TF[0] U3K[0] U3[0] U4[0] U4Ü[0] U5[0] U6K[0] U6[0] U7K[0] U7[0]
!! N1[2] N2K[0] N2[9] N3K[0] N3[12] N4[12] N4Ü[1] N5[36] N6K[0] N6[14]
!!!n7k: 0] N7[6] O1[6] O2K[0] O2[2] O3K[0] O3[0] HÖ[0
